X: 41430
T: Twm Edwards
R: jig
M: 6/8
K: Dmajor
|:aff gee|fdd ecA|d2f ecA|d2f ecA|
dcd ede|fef ^geg|aed cdB|A3 A3:|
|:DEF EFG|F2A EFG|D2d AB=c|B3 B3|
GFG AGA|BAB cBc|dAG FGE|D3 D3:|

